X:11
T:Peach Blossoms
R:barndance
Z:id:hn-barndance-11
M:C|
L:1/8
K:D
A2fA A2fA | B2g2 g2ed | ceae cea^g | b2a2 f3A |
A2fA A2fA | B2g2 g2ed | ceba ^ga=ge |1 d2fe d3A :|2 d2fe d2cB ||
|: A2A2 Bcde | fdAF A3B | cBGE c3a | bafd A2FG |
A2A2 Bcde | fdAF A3c | dcBc dgfe |1 d2fe d2cB :|2 d2c2 d3=c ||
K:G
|: B2GB dgbg | a2e2 e2ag | f2c2 c2fe | d2B2 B2dc |
BDGB dgbg | a2e2 e2ag | fdcA dcAF |1 G2B2 G2dc :|2 G2B2 G3A ||
<end>
<start>
